public/assets/blog-1.svg

<svg width="356" height="246" viewBox="0 0 356 246" fill="none" xmlns="http://www.w3.org/2000/svg">
<g clip-path="url(#clip0_1_2065)">
<path d="M356 0H0V246H356V0Z" fill="#003834"/>
<path d="M177.78 38.1901H27.1899V138.37H177.78V38.1901Z" fill="#003834" stroke="#A9C753" stroke-width="1.46" stroke-miterlimit="10"/>
<path d="M109.36 108.34C99.2999 112.14 88.0699 107.06 84.2699 97C83.3899 94.68 82.9999 92.3 83.0199 89.96C77.9699 88.36 72.7399 87.32 67.4699 86.54C66.9299 91.8 67.5599 97.27 69.5499 102.56C76.3599 120.59 96.3699 129.77 114.44 123.24C114.6 123.18 115.24 122.94 115.24 122.94L109.68 108.21C109.68 108.21 109.47 108.3 109.36 108.34Z" fill="white" stroke="white" stroke-width="0.43" stroke-miterlimit="10"/>
<path d="M69.7899 77.0701C69.7899 77.0701 69.5999 77.5401 69.5199 77.7801C66.8599 84.8701 66.4699 92.8401 68.8599 100.54C69.0699 101.21 69.5499 102.56 69.5499 102.56L84.2699 97.0001C82.5699 92.4901 82.6499 87.7401 84.1599 83.5301C84.2299 83.3301 84.3899 82.9301 84.3899 82.9301L69.7899 77.0701Z" fill="#ADCB53" stroke="#ADCB53" stroke-width="0.43" stroke-miterlimit="10"/>
<path d="M109.36 108.34C99.2999 112.14 88.0698 107.06 84.2698 97.0001C80.4698 86.9401 85.5499 75.7101 95.6099 71.9101C105.67 68.1101 116.9 73.1901 120.7 83.2501C124.5 93.3101 119.42 104.54 109.36 108.34ZM114.91 123.06C96.7899 129.9 76.5699 120.76 69.7299 102.64C62.8899 84.5201 72.0299 64.3001 90.1499 57.4601C108.27 50.6201 128.49 59.7601 135.33 77.8801C142.17 96.0001 133.03 116.22 114.91 123.06Z" stroke="#C8D3DD" stroke-width="0.87" stroke-miterlimit="10"/>
<path d="M113.88 29.65H91.09V44.58H113.88V29.65Z" fill="#A9C753"/>
<path d="M38.5699 122.47H67.4699" stroke="#ADCB53" stroke-width="1.5" stroke-miterlimit="10"/>
<path d="M38.5699 128.14H67.4699" stroke="#ADCB53" stroke-width="1.5" stroke-miterlimit="10"/>
<path d="M67.47 122.47L84.39 111.56" stroke="#ADCB53" stroke-width="1.5" stroke-miterlimit="10"/>
<path d="M227.67 132.25C224.61 127.22 220.79 122.49 216.09 118.9C215.19 118.21 214.38 117.91 213.65 117.9C213.73 117.7 213.8 117.5 213.88 117.3C212.61 115.96 211.2 114.75 209.66 113.71C205.62 110.98 200.75 109.39 195.51 109.39H158.29C154.22 109.39 150.37 110.35 146.96 112.06C144.3 113.39 141.93 115.19 139.91 117.33C140.02 117.51 140.12 117.7 140.22 117.89C138.42 118.56 136.7 119.93 134.7 121.85C132.47 124 130.44 126.34 128.69 128.89C112.02 153.18 110.88 186.46 111.42 214.99L133 214.42V214.99H220.82V213.89L242.77 214.99C243.29 187.72 242.25 156.21 227.67 132.24V132.25Z" fill="#003834"/>
<path d="M220.81 215L220.31 163.53C220.28 160.37 219.53 157.26 218.11 154.43C214.48 147.24 208.15 131.28 213.87 117.29C212.6 115.95 211.19 114.74 209.65 113.7C205.61 110.97 200.74 109.38 195.5 109.38H158.28C154.21 109.38 150.36 110.34 146.95 112.05C144.29 113.38 141.92 115.18 139.9 117.32C146.37 127.98 140.33 146.68 136.1 154.6C134.54 157.53 133.75 160.8 133.71 164.12L132.98 214.98" stroke="#686868" stroke-width="1.3" stroke-linecap="round" stroke-linejoin="round"/>
<path d="M140.31 117.3C113.26 135.52 110.87 186.12 111.42 215" stroke="#686868" stroke-width="1.3" stroke-miterlimit="10"/>
<path d="M213.87 117.3C240.92 135.52 243.31 186.12 242.76 215" stroke="#686868" stroke-width="1.3" stroke-miterlimit="10"/>
<path d="M174.06 96.1899H181.27C185.03 96.1899 188.08 99.2399 188.08 103V109.69C188.08 115.44 183.41 120.1 177.67 120.1C171.92 120.1 167.26 115.43 167.26 109.69V103C167.26 99.2399 170.31 96.1899 174.07 96.1899H174.06Z" fill="#808080"/>
<path d="M188.07 109.69C188.07 115.42 183.38 120.1 177.66 120.1C171.93 120.1 167.25 115.41 167.25 109.69" stroke="white" stroke-width="2.22" stroke-linecap="round" stroke-linejoin="round"/>
<g style="mix-blend-mode:multiply" opacity="0.5">
<path d="M172.43 87.36H183.33C186.19 87.36 188.51 89.68 188.51 92.54V102.16C188.51 107.19 184.42 111.28 179.39 111.28H176.38C171.35 111.28 167.26 107.19 167.26 102.16V92.54C167.26 89.68 169.58 87.36 172.44 87.36H172.43Z" fill="#808080"/>
</g>
<path d="M177.66 106.74C195.013 106.74 209.08 92.6728 209.08 75.32C209.08 57.9672 195.013 43.9 177.66 43.9C160.307 43.9 146.24 57.9672 146.24 75.32C146.24 92.6728 160.307 106.74 177.66 106.74Z" fill="#808080"/>
<path d="M214.829 81.4486C217.623 77.2114 217.313 72.0783 214.136 69.9836C210.959 67.8889 206.119 69.6258 203.325 73.863C200.531 78.1003 200.841 83.2334 204.018 85.3281C207.195 87.4228 212.035 85.6859 214.829 81.4486Z" fill="#808080"/>
<path d="M151.311 85.3471C154.488 83.2524 154.798 78.1193 152.004 73.882C149.21 69.6448 144.37 67.9079 141.193 70.0026C138.017 72.0973 137.706 77.2304 140.5 81.4677C143.294 85.7049 148.134 87.4418 151.311 85.3471Z" fill="#808080"/>
<path d="M208.68 80.5C209.66 80.12 210.46 79.31 210.85 78.34C211.09 77.73 211.15 76.99 210.76 76.46C210.37 75.93 209.41 75.87 209.12 76.46C209.23 75.35 209.7 74.17 210.36 73.27C211.02 72.37 212.16 71.75 213.26 71.98" stroke="#545454" stroke-width="0.99" stroke-linecap="round" stroke-linejoin="round"/>
<path d="M146.65 80.5C145.67 80.12 144.87 79.31 144.48 78.34C144.24 77.73 144.18 76.99 144.57 76.46C144.96 75.93 145.92 75.87 146.21 76.46C146.1 75.35 145.63 74.17 144.97 73.27C144.31 72.37 143.17 71.75 142.07 71.98" stroke="#545454" stroke-width="0.99" stroke-linecap="round" stroke-linejoin="round"/>
<path d="M156.89 49.4399C154.32 51.0899 152.31 53.3099 150.77 55.6899C148.21 59.6499 146.34 64.2899 146.75 69.0899C146.79 69.5599 146.94 70.1299 147.4 70.2399C148.52 68.3199 148.68 65.8999 149.67 63.8899C150.74 61.7299 152.12 59.7099 153.72 57.9199C155.34 56.1099 157.23 54.6499 159.27 53.7599L156.89 49.4399Z" fill="white"/>
<path d="M205.14 47.1C206.71 47.71 208.35 47.87 209.57 49.49C210 50.06 210.65 51.09 210.76 51.8C210.81 52.11 210.82 53.75 210.11 53.3C209.73 53.06 209.51 52.63 209.18 52.32C208.19 51.4 207.89 52.44 208.13 53.28C208.75 55.4 209.42 57.51 209.63 59.72C209.97 63.37 210.18 67.12 208.4 70.5C208.31 70.66 208.17 70.8 207.99 70.85C207.43 71.02 207.14 70.37 207.03 69.86C205.99 65.06 204.58 60.7 200.31 57.93C194.72 54.3 187.7 54.31 181.31 54.91C174.54 55.55 167.57 58.71 160.7 57.49C155.05 56.49 149.67 53.31 146.91 48.15C146.2 46.82 145.2 44.69 145.61 43.11C146.3 40.44 148.78 43.27 150.21 43.96C151.49 44.57 153.18 44.63 154.53 44.27C155.27 44.07 155.98 43.76 156.66 43.41C157.35 43.05 158.03 42.64 158.69 42.23C161.03 40.8 163.7 38.66 166.53 38.6C165.59 38.62 164.54 34.51 164.94 33.84C165.56 32.8 166.73 34.01 167.64 34.31C169 34.77 170.44 35.06 171.84 35.35C173.9 35.77 175.46 35.51 177.5 35.45C181.21 35.34 184.83 35.9 188.46 36.57C187.85 34.98 188.81 32.95 190.19 32.05C190.3 31.98 190.45 31.97 190.55 32.05C190.74 32.18 190.64 32.44 190.58 32.65C190.4 33.29 190.71 33.96 191.03 34.55C192.19 36.68 194.59 40.36 197.04 41.08C197.54 39.1 198.65 37.34 200.75 36.7C200.9 36.65 201.07 36.68 201.18 36.79C201.41 37 201.26 37.28 201.14 37.51C200.62 38.5 200.55 39.67 200.72 40.77C201.08 43.05 201.71 44.91 203.59 46.31C204.07 46.66 204.57 46.9 205.07 47.1H205.14Z" fill="white"/>
<path d="M168.4 74.8C169.67 74.8 170.7 73.7702 170.7 72.5C170.7 71.2297 169.67 70.2 168.4 70.2C167.13 70.2 166.1 71.2297 166.1 72.5C166.1 73.7702 167.13 74.8 168.4 74.8Z" fill="black"/>
<path d="M197.51 74.8C198.78 74.8 199.81 73.7702 199.81 72.5C199.81 71.2297 198.78 70.2 197.51 70.2C196.24 70.2 195.21 71.2297 195.21 72.5C195.21 73.7702 196.24 74.8 197.51 74.8Z" fill="black"/>
<path d="M165.03 34.4299C165.29 36.6199 166.24 39.1799 168.13 40.4499C169.55 41.3999 171.25 41.8099 172.93 42.1299" stroke="#003834" stroke-width="0.66" stroke-linecap="round" stroke-linejoin="round"/>
<path d="M201.13 36.5C198.37 37 196.74 41.28 197.42 43.72" stroke="#003834" stroke-width="0.66" stroke-linecap="round" stroke-linejoin="round"/>
<path d="M190.05 32.25C188.99 33.15 188.48 34.57 188.49 35.96C188.5 37.35 189.01 38.69 189.71 39.89" stroke="#003834" stroke-width="0.66" stroke-linecap="round" stroke-linejoin="round"/>
<path d="M153.98 47.02C157.01 46.7 158.93 45.29 161.28 43.62C163.6 41.98 166.95 41.32 169.74 41.44" stroke="#003834" stroke-width="0.66" stroke-linecap="round" stroke-linejoin="round"/>
<path d="M147.19 43.73C148.02 45.45 149.79 46.69 151.69 46.87" stroke="#003834" stroke-width="0.66" stroke-linecap="round" stroke-linejoin="round"/>
<path d="M176.21 42.96C181.18 43.6 185.39 44.16 189.7 46.99" stroke="#003834" stroke-width="0.66" stroke-linecap="round" stroke-linejoin="round"/>
<path d="M156.06 67.35L171.31 67.53" stroke="white" stroke-width="2.49" stroke-miterlimit="10"/>
<path d="M184.59 67.53L199.84 67.35" stroke="white" stroke-width="2.49" stroke-miterlimit="10"/>
<path d="M188.35 87.99C188.14 88.06 187.94 88.11 187.88 88.12C187.44 88.17 186.91 88.09 186.57 87.78C185.75 87.03 185.4 85.81 184.61 85C184.16 84.54 183.65 84.14 183.1 83.8C181.96 82.97 180.56 82.58 179.15 82.58H176.16C174.75 82.58 173.35 82.97 172.21 83.8C171.66 84.14 171.16 84.54 170.7 85C169.91 85.8 169.56 87.03 168.74 87.78C168.4 88.09 167.88 88.17 167.43 88.12C167.37 88.12 167.18 88.06 166.96 87.99C166.55 87.85 166.13 88.18 166.18 88.61C166.31 89.82 167.16 91.05 168.05 91.7C168.13 91.76 168.22 91.82 168.32 91.87C169.13 92.33 170.3 92.52 171.16 92.61C172.43 92.75 176.91 90.52 177.86 90.52C178.67 90.52 182.87 92.75 184.14 92.61C185.01 92.52 186.18 92.32 186.98 91.87C187.07 91.82 187.16 91.76 187.25 91.7C188.14 91.05 188.98 89.82 189.12 88.61C189.17 88.18 188.75 87.85 188.34 87.99H188.35Z" fill="white"/>
<path d="M148.5 86.59C151.45 92.64 154.18 96.2 158.12 99.65C161.39 102.52 165.6 104.76 169.76 106.06C172.21 106.83 176.56 107.42 179.01 106.36C181.67 105.21 182.43 100.95 179.49 99.95C177.99 99.44 174.02 99.79 174.63 102.33" stroke="#545454" stroke-width="0.64" stroke-linecap="round" stroke-linejoin="round"/>
<path d="M28.6499 215H326.68" stroke="#C3C3C3" stroke-width="1.34" stroke-linecap="round" stroke-linejoin="round"/>
<path d="M100.72 198.28H42.2" stroke="white" stroke-width="1.35" stroke-linecap="round" stroke-linejoin="round"/>
<path d="M100.72 206.13H42.2" stroke="white" stroke-width="1.35" stroke-linecap="round" stroke-linejoin="round"/>
<path d="M100.72 190.64H42.2" stroke="white" stroke-width="1.35" stroke-linecap="round" stroke-linejoin="round"/>
<path d="M100.72 183H42.2" stroke="white" stroke-width="1.35" stroke-linecap="round" stroke-linejoin="round"/>
<path d="M46.25 183L54.41 192.32L70.2 183H46.25Z" fill="white" stroke="white" stroke-width="1.35" stroke-linejoin="round"/>
<path d="M241.93 165.26C241.93 181.89 228.45 195.37 211.82 195.37C195.19 195.37 181.71 181.89 181.71 165.26H241.93Z" fill="#013834" stroke="white" stroke-width="1.35" stroke-linecap="round" stroke-linejoin="round"/>
<path d="M327.89 165.26C327.89 181.89 314.41 195.37 297.78 195.37C281.15 195.37 267.67 181.89 267.67 165.26H327.89Z" fill="#013834" stroke="white" stroke-width="1.35" stroke-linecap="round" stroke-linejoin="round"/>
<path d="M262.68 191.93H246.56V214.28H262.68V191.93Z" fill="#A9C753"/>
<path d="M211.34 195.37H297.9" stroke="#ADCB53" stroke-width="1.59" stroke-linecap="round" stroke-linejoin="round"/>
<path d="M211.64 201.35C208.34 201.35 205.66 198.67 205.66 195.37C205.66 192.07 208.34 189.39 211.64 189.39C214.94 189.39 217.62 192.07 217.62 195.37C217.62 198.67 214.94 201.35 211.64 201.35Z" fill="#ADCB53"/>
<path d="M297.6 201.35C300.9 201.35 303.58 198.67 303.58 195.37C303.58 192.07 300.9 189.39 297.6 189.39C294.3 189.39 291.62 192.07 291.62 195.37C291.62 198.67 294.3 201.35 297.6 201.35Z" fill="#ADCB53"/>
<path d="M235.2 131.34H188.43V158.39H235.2V131.34Z" fill="#ADCB53" stroke="#ADCB53" stroke-width="1.09" stroke-linecap="round" stroke-linejoin="round"/>
<path d="M210.98 152.51V150.7C209.8 150.66 208.63 150.33 207.95 149.88L208.45 148.12C209.18 148.55 210.23 148.94 211.37 148.94C212.51 148.94 213.35 148.36 213.35 147.46C213.35 146.62 212.7 146.08 211.31 145.57C209.35 144.86 208.08 143.96 208.08 142.22C208.08 140.61 209.2 139.38 211.09 139.04V137.21H212.62V138.95C213.8 138.99 214.6 139.27 215.2 139.57L214.7 141.29C214.25 141.08 213.43 140.65 212.16 140.65C210.89 140.65 210.38 141.32 210.38 141.96C210.38 142.73 211.05 143.16 212.64 143.79C214.73 144.57 215.67 145.58 215.67 147.25C215.67 148.92 214.57 150.24 212.51 150.58V152.5H210.98V152.51Z" fill="white"/>
<path d="M211.82 154.98C217.409 154.98 221.94 150.449 221.94 144.86C221.94 139.271 217.409 134.74 211.82 134.74C206.231 134.74 201.7 139.271 201.7 144.86C201.7 150.449 206.231 154.98 211.82 154.98Z" stroke="white" stroke-width="1.06" stroke-miterlimit="10"/>
<path d="M326.7 110.29L270.55 110.47V158.09H326.7V110.29Z" stroke="#ADCB53" stroke-width="1.09" stroke-linecap="round" stroke-linejoin="round"/>
<path d="M326.69 106H270.55V112.03H326.69V106Z" fill="#A8C653" stroke="#A8C653" stroke-width="1.19" stroke-miterlimit="10"/>
<path d="M292.08 130.36C292.08 133.97 295.01 136.9 298.62 136.9C302.23 136.9 305.16 133.97 305.16 130.36C305.16 127.92 302.18 122.54 300.24 119.29C299.51 118.06 297.73 118.06 296.99 119.29C295.05 122.53 292.07 127.92 292.07 130.36H292.08Z" stroke="#ADCB53" stroke-width="1.09" stroke-linecap="round" stroke-linejoin="round"/>
<path d="M298.62 126.93V140.26" stroke="#ADCB53" stroke-width="1.09" stroke-linecap="round" stroke-linejoin="round"/>
<path d="M296.99 127.02C296.99 126.12 297.72 125.39 298.62 125.39C299.52 125.39 300.25 126.12 300.25 127.02C300.25 127.92 299.52 128.65 298.62 128.65C297.72 128.65 296.99 127.92 296.99 127.02Z" fill="#ADCB53"/>
<path d="M287.36 126.84L281.14 131.43L287.36 136.02" stroke="#ADCB53" stroke-width="1.09" stroke-linecap="round" stroke-linejoin="round"/>
<path d="M309.89 126.84L316.11 131.43L309.89 136.02" stroke="#ADCB53" stroke-width="1.09" stroke-linecap="round" stroke-linejoin="round"/>
<path d="M308.51 148.11H315.92" stroke="#ADCB53" stroke-width="1.09" stroke-linecap="round" stroke-linejoin="round"/>
<path d="M291.39 148.11H304.96" stroke="#ADCB53" stroke-width="1.09" stroke-linecap="round" stroke-linejoin="round"/>
<path d="M281.33 148.11H287.35" stroke="#ADCB53" stroke-width="1.09" stroke-linecap="round" stroke-linejoin="round"/>
</g>
<defs>
<clipPath id="clip0_1_2065">
<rect width="356" height="246" fill="white"/>
</clipPath>
</defs>
</svg>

<svg xmlns="http://www.w3.org/2000/svg" width="356" height="246" fill="none" viewBox="0 0 356 246"><g clip-path="url(#a)"><path fill="#003834" d="M356 0H0v246h356z"/><path fill="#003834" stroke="#a9c753" stroke-miterlimit="10" stroke-width="1.46" d="M177.78 38.19H27.19v100.18h150.59z"/><path fill="#fff" stroke="#fff" stroke-miterlimit="10" stroke-width=".43" d="M109.36 108.34c-10.06 3.8-21.29-1.28-25.09-11.34-.88-2.32-1.27-4.7-1.25-7.04-5.05-1.6-10.28-2.64-15.55-3.42-.54 5.26.09 10.73 2.08 16.02 6.81 18.03 26.82 27.21 44.89 20.68l.8-.3-5.56-14.73s-.21.09-.32.13Z"/><path fill="#adcb53" stroke="#adcb53" stroke-miterlimit="10" stroke-width=".43" d="M69.79 77.07s-.19.47-.27.71a35.06 35.06 0 0 0-.66 22.76c.21.67.69 2.02.69 2.02L84.27 97c-1.7-4.51-1.62-9.26-.11-13.47.07-.2.23-.6.23-.6z"/><path stroke="#c8d3dd" stroke-miterlimit="10" stroke-width=".87" d="M109.36 108.34c-10.06 3.8-21.29-1.28-25.09-11.34s1.28-21.29 11.34-25.09 21.29 1.28 25.09 11.34-1.28 21.29-11.34 25.09Zm5.55 14.72c-18.12 6.84-38.34-2.3-45.18-20.42s2.3-38.34 20.42-45.18 38.34 2.3 45.18 20.42-2.3 38.34-20.42 45.18Z"/><path fill="#a9c753" d="M113.88 29.65H91.09v14.93h22.79z"/><path stroke="#adcb53" stroke-miterlimit="10" stroke-width="1.5" d="M38.57 122.47h28.9m-28.9 5.67h28.9m0-5.67 16.92-10.91"/><path fill="#003834" d="M227.67 132.25c-3.06-5.03-6.88-9.76-11.58-13.35-.9-.69-1.71-.99-2.44-1 .08-.2.15-.4.23-.6a25.4 25.4 0 0 0-4.22-3.59 25.2 25.2 0 0 0-14.15-4.32h-37.22c-4.07 0-7.92.96-11.33 2.67-2.66 1.33-5.03 3.13-7.05 5.27.11.18.21.37.31.56-1.8.67-3.52 2.04-5.52 3.96-2.23 2.15-4.26 4.49-6.01 7.04-16.67 24.29-17.81 57.57-17.27 86.1l21.58-.57v.57h87.82v-1.1l21.95 1.1c.52-27.27-.52-58.78-15.1-82.75z"/><path stroke="#686868" stroke-linecap="round" stroke-linejoin="round" stroke-width="1.3" d="m220.81 215-.5-51.47c-.03-3.16-.78-6.27-2.2-9.1-3.63-7.19-9.96-23.15-4.24-37.14a25.4 25.4 0 0 0-4.22-3.59 25.2 25.2 0 0 0-14.15-4.32h-37.22c-4.07 0-7.92.96-11.33 2.67-2.66 1.33-5.03 3.13-7.05 5.27 6.47 10.66.43 29.36-3.8 37.28-1.56 2.93-2.35 6.2-2.39 9.52l-.73 50.86"/><path stroke="#686868" stroke-miterlimit="10" stroke-width="1.3" d="M140.31 117.3c-27.05 18.22-29.44 68.82-28.89 97.7m102.45-97.7c27.05 18.22 29.44 68.82 28.89 97.7"/><path fill="gray" d="M174.06 96.19h7.21c3.76 0 6.81 3.05 6.81 6.81v6.69c0 5.75-4.67 10.41-10.41 10.41-5.75 0-10.41-4.67-10.41-10.41V103c0-3.76 3.05-6.81 6.81-6.81z"/><path stroke="#fff" stroke-linecap="round" stroke-linejoin="round" stroke-width="2.22" d="M188.07 109.69c0 5.73-4.69 10.41-10.41 10.41-5.73 0-10.41-4.69-10.41-10.41"/><path fill="gray" d="M172.43 87.36h10.9c2.86 0 5.18 2.32 5.18 5.18v9.62c0 5.03-4.09 9.12-9.12 9.12h-3.01c-5.03 0-9.12-4.09-9.12-9.12v-9.62c0-2.86 2.32-5.18 5.18-5.18z" opacity=".5" style="mix-blend-mode:multiply"/><path fill="gray" d="M177.66 106.74c17.353 0 31.42-14.067 31.42-31.42S195.013 43.9 177.66 43.9s-31.42 14.067-31.42 31.42 14.067 31.42 31.42 31.42"/><path fill="gray" d="M214.829 81.449c2.794-4.238 2.484-9.37-.693-11.465s-8.017-.358-10.811 3.879-2.484 9.37.693 11.465 8.017.358 10.811-3.88m-63.518 3.899c3.177-2.095 3.487-7.228.693-11.465s-7.634-5.974-10.811-3.88-3.487 7.228-.693 11.466 7.634 5.974 10.811 3.88"/><path stroke="#545454" stroke-linecap="round" stroke-linejoin="round" stroke-width=".99" d="M208.68 80.5c.98-.38 1.78-1.19 2.17-2.16.24-.61.3-1.35-.09-1.88s-1.35-.59-1.64 0c.11-1.11.58-2.29 1.24-3.19s1.8-1.52 2.9-1.29m-66.61 8.52a3.9 3.9 0 0 1-2.17-2.16c-.24-.61-.3-1.35.09-1.88s1.35-.59 1.64 0c-.11-1.11-.58-2.29-1.24-3.19s-1.8-1.52-2.9-1.29"/><path fill="#fff" d="M156.89 49.44c-2.57 1.65-4.58 3.87-6.12 6.25-2.56 3.96-4.43 8.6-4.02 13.4.04.47.19 1.04.65 1.15 1.12-1.92 1.28-4.34 2.27-6.35 1.07-2.16 2.45-4.18 4.05-5.97 1.62-1.81 3.51-3.27 5.55-4.16z"/><path fill="#fff" d="M205.14 47.1c1.57.61 3.21.77 4.43 2.39.43.57 1.08 1.6 1.19 2.31.05.31.06 1.95-.65 1.5-.38-.24-.6-.67-.93-.98-.99-.92-1.29.12-1.05.96.62 2.12 1.29 4.23 1.5 6.44.34 3.65.55 7.4-1.23 10.78-.09.16-.23.3-.41.35-.56.17-.85-.48-.96-.99-1.04-4.8-2.45-9.16-6.72-11.93-5.59-3.63-12.61-3.62-19-3.02-6.77.64-13.74 3.8-20.61 2.58-5.65-1-11.03-4.18-13.79-9.34-.71-1.33-1.71-3.46-1.3-5.04.69-2.67 3.17.16 4.6.85 1.28.61 2.97.67 4.32.31.74-.2 1.45-.51 2.13-.86.69-.36 1.37-.77 2.03-1.18 2.34-1.43 5.01-3.57 7.84-3.63-.94.02-1.99-4.09-1.59-4.76.62-1.04 1.79.17 2.7.47 1.36.46 2.8.75 4.2 1.04 2.06.42 3.62.16 5.66.1 3.71-.11 7.33.45 10.96 1.12-.61-1.59.35-3.62 1.73-4.52.11-.07.26-.08.36 0 .19.13.09.39.03.6-.18.64.13 1.31.45 1.9 1.16 2.13 3.56 5.81 6.01 6.53.5-1.98 1.61-3.74 3.71-4.38.15-.05.32-.02.43.09.23.21.08.49-.04.72-.52.99-.59 2.16-.42 3.26.36 2.28.99 4.14 2.87 5.54.48.35.98.59 1.48.79z"/><path fill="#000" d="M168.4 74.8a2.3 2.3 0 1 0 0-4.6 2.3 2.3 0 0 0 0 4.6m29.11 0a2.3 2.3 0 1 0 0-4.6 2.3 2.3 0 0 0 0 4.6"/><path stroke="#003834" stroke-linecap="round" stroke-linejoin="round" stroke-width=".66" d="M165.03 34.43c.26 2.19 1.21 4.75 3.1 6.02 1.42.95 3.12 1.36 4.8 1.68m28.2-5.63c-2.76.5-4.39 4.78-3.71 7.22m-7.37-11.47c-1.06.9-1.57 2.32-1.56 3.71s.52 2.73 1.22 3.93m-35.73 7.13c3.03-.32 4.95-1.73 7.3-3.4 2.32-1.64 5.67-2.3 8.46-2.18m-22.55 2.29c.83 1.72 2.6 2.96 4.5 3.14m24.52-3.91c4.97.64 9.18 1.2 13.49 4.03"/><path stroke="#fff" stroke-miterlimit="10" stroke-width="2.49" d="m156.06 67.35 15.25.18m13.28 0 15.25-.18"/><path fill="#fff" d="M188.35 87.99c-.21.07-.41.12-.47.13-.44.05-.97-.03-1.31-.34-.82-.75-1.17-1.97-1.96-2.78a8 8 0 0 0-1.51-1.2c-1.14-.83-2.54-1.22-3.95-1.22h-2.99c-1.41 0-2.81.39-3.95 1.22-.55.34-1.05.74-1.51 1.2-.79.8-1.14 2.03-1.96 2.78-.34.31-.86.39-1.31.34-.06 0-.25-.06-.47-.13a.59.59 0 0 0-.78.62c.13 1.21.98 2.44 1.87 3.09.08.06.17.12.27.17.81.46 1.98.65 2.84.74 1.27.14 5.75-2.09 6.7-2.09.81 0 5.01 2.23 6.28 2.09.87-.09 2.04-.29 2.84-.74.09-.05.18-.11.27-.17.89-.65 1.73-1.88 1.87-3.09a.59.59 0 0 0-.78-.62z"/><path stroke="#545454" stroke-linecap="round" stroke-linejoin="round" stroke-width=".64" d="M148.5 86.59c2.95 6.05 5.68 9.61 9.62 13.06 3.27 2.87 7.48 5.11 11.64 6.41 2.45.77 6.8 1.36 9.25.3 2.66-1.15 3.42-5.41.48-6.41-1.5-.51-5.47-.16-4.86 2.38"/><path stroke="#c3c3c3" stroke-linecap="round" stroke-linejoin="round" stroke-width="1.34" d="M28.65 215h298.03"/><path stroke="#fff" stroke-linecap="round" stroke-linejoin="round" stroke-width="1.35" d="M100.72 198.28H42.2m58.52 7.85H42.2m58.52-15.49H42.2m58.52-7.64H42.2"/><path fill="#fff" stroke="#fff" stroke-linejoin="round" stroke-width="1.35" d="m46.25 183 8.16 9.32L70.2 183z"/><path fill="#013834" stroke="#fff" stroke-linecap="round" stroke-linejoin="round" stroke-width="1.35" d="M241.93 165.26c0 16.63-13.48 30.11-30.11 30.11s-30.11-13.48-30.11-30.11zm85.96 0c0 16.63-13.48 30.11-30.11 30.11s-30.11-13.48-30.11-30.11z"/><path fill="#a9c753" d="M262.68 191.93h-16.12v22.35h16.12z"/><path stroke="#adcb53" stroke-linecap="round" stroke-linejoin="round" stroke-width="1.59" d="M211.34 195.37h86.56"/><path fill="#adcb53" d="M211.64 201.35c-3.3 0-5.98-2.68-5.98-5.98s2.68-5.98 5.98-5.98 5.98 2.68 5.98 5.98-2.68 5.98-5.98 5.98m85.96 0c3.3 0 5.98-2.68 5.98-5.98s-2.68-5.98-5.98-5.98-5.98 2.68-5.98 5.98 2.68 5.98 5.98 5.98"/><path fill="#adcb53" stroke="#adcb53" stroke-linecap="round" stroke-linejoin="round" stroke-width="1.09" d="M235.2 131.34h-46.77v27.05h46.77z"/><path fill="#fff" d="M210.98 152.51v-1.81c-1.18-.04-2.35-.37-3.03-.82l.5-1.76c.73.43 1.78.82 2.92.82s1.98-.58 1.98-1.48c0-.84-.65-1.38-2.04-1.89-1.96-.71-3.23-1.61-3.23-3.35 0-1.61 1.12-2.84 3.01-3.18v-1.83h1.53v1.74c1.18.04 1.98.32 2.58.62l-.5 1.72c-.45-.21-1.27-.64-2.54-.64s-1.78.67-1.78 1.31c0 .77.67 1.2 2.26 1.83 2.09.78 3.03 1.79 3.03 3.46s-1.1 2.99-3.16 3.33v1.92h-1.53z"/><path stroke="#fff" stroke-miterlimit="10" stroke-width="1.06" d="M211.82 154.98c5.589 0 10.12-4.531 10.12-10.12s-4.531-10.12-10.12-10.12-10.12 4.531-10.12 10.12 4.531 10.12 10.12 10.12Z"/><path stroke="#adcb53" stroke-linecap="round" stroke-linejoin="round" stroke-width="1.09" d="m326.7 110.29-56.15.18v47.62h56.15z"/><path fill="#a8c653" stroke="#a8c653" stroke-miterlimit="10" stroke-width="1.19" d="M326.69 106h-56.14v6.03h56.14z"/><path stroke="#adcb53" stroke-linecap="round" stroke-linejoin="round" stroke-width="1.09" d="M292.08 130.36c0 3.61 2.93 6.54 6.54 6.54s6.54-2.93 6.54-6.54c0-2.44-2.98-7.82-4.92-11.07-.73-1.23-2.51-1.23-3.25 0-1.94 3.24-4.92 8.63-4.92 11.07zm6.54-3.43v13.33"/><path fill="#adcb53" d="M296.99 127.02a1.63 1.63 0 1 1 3.26 0 1.63 1.63 0 0 1-3.26 0"/><path stroke="#adcb53" stroke-linecap="round" stroke-linejoin="round" stroke-width="1.09" d="m287.36 126.84-6.22 4.59 6.22 4.59m22.53-9.18 6.22 4.59-6.22 4.59m-1.38 12.09h7.41m-24.53 0h13.57m-23.63 0h6.02"/></g><defs><clipPath id="a"><path fill="#fff" d="M0 0h356v246H0z"/></clipPath></defs></svg>
